img/advantage/fast.svg

<svg width="48" height="48" viewBox="0 0 48 48" fill="none" xmlns="http://www.w3.org/2000/svg">
<g clip-path="url(#clip0)">
<path d="M13.0001 38H9.00006C8.44806 38 8.00006 37.552 8.00006 37C8.00006 36.448 8.44806 36 9.00006 36H13.0001C13.5521 36 14.0001 36.448 14.0001 37C14.0001 37.552 13.5521 38 13.0001 38Z" fill="#156963"/>
<path d="M45.5 38H43C42.448 38 42 37.552 42 37C42 36.448 42.448 36 43 36H44.67L46.018 28.816C46 25.14 42.86 22 39 22H32.434L29.252 36H35C35.552 36 36 36.448 36 37C36 37.552 35.552 38 35 38H28C27.696 38 27.408 37.862 27.218 37.624C27.028 37.388 26.956 37.076 27.024 36.78L30.66 20.78C30.764 20.322 31.168 20 31.636 20H39C43.962 20 48 24.038 48 29L46.482 37.184C46.394 37.658 45.982 38 45.5 38Z" fill="#156963"/>
<path d="M38.9999 42C36.2439 42 33.9999 39.758 33.9999 37C33.9999 34.242 36.2439 32 38.9999 32C41.7559 32 43.9999 34.242 43.9999 37C43.9999 39.758 41.7559 42 38.9999 42ZM38.9999 34C37.3459 34 35.9999 35.346 35.9999 37C35.9999 38.654 37.3459 40 38.9999 40C40.6539 40 41.9999 38.654 41.9999 37C41.9999 35.346 40.6539 34 38.9999 34Z" fill="#156963"/>
<path d="M17 42C14.244 42 12 39.758 12 37C12 34.242 14.244 32 17 32C19.756 32 22 34.242 22 37C22 39.758 19.756 42 17 42ZM17 34C15.346 34 14 35.346 14 37C14 38.654 15.346 40 17 40C18.654 40 20 38.654 20 37C20 35.346 18.654 34 17 34Z" fill="#156963"/>
<path d="M12.9999 20H4.99994C4.44794 20 3.99994 19.552 3.99994 19C3.99994 18.448 4.44794 18 4.99994 18H12.9999C13.5519 18 13.9999 18.448 13.9999 19C13.9999 19.552 13.5519 20 12.9999 20Z" fill="#156963"/>
<path d="M13.0001 26H3.00006C2.44806 26 2.00006 25.552 2.00006 25C2.00006 24.448 2.44806 24 3.00006 24H13.0001C13.5521 24 14.0001 24.448 14.0001 25C14.0001 25.552 13.5521 26 13.0001 26Z" fill="#156963"/>
<path d="M13 32H1C0.448 32 0 31.552 0 31C0 30.448 0.448 30 1 30H13C13.552 30 14 30.448 14 31C14 31.552 13.552 32 13 32Z" fill="#156963"/>
<path d="M28.0001 38H21.0001C20.4481 38 20.0001 37.552 20.0001 37C20.0001 36.448 20.4481 36 21.0001 36H27.2021L31.7461 16H9.00006C8.44806 16 8.00006 15.552 8.00006 15C8.00006 14.448 8.44806 14 9.00006 14H33.0001C33.3041 14 33.5921 14.138 33.7821 14.376C33.9721 14.612 34.0441 14.924 33.9761 15.22L28.9761 37.22C28.8721 37.678 28.4661 38 28.0001 38Z" fill="#156963"/>
</g>
<defs>
<clipPath id="clip0">
<rect width="48" height="48" fill="white"/>
</clipPath>
</defs>
</svg>

<svg width="48" height="48" viewBox="0 0 48 48" fill="none" xmlns="http://www.w3.org/2000/svg"><g clip-path="url(#clip0)" fill="#156963"><path d="M13 38H9a1 1 0 010-2h4a1 1 0 010 2zm32.5 0H43a1 1 0 010-2h1.67l1.348-7.184C46 25.14 42.86 22 39 22h-6.566l-3.182 14H35a1 1 0 010 2h-7a1 1 0 01-.976-1.22l3.636-16a1 1 0 01.976-.78H39c4.962 0 9 4.038 9 9l-1.518 8.184A.997.997 0 0145.5 38z"/><path d="M39 42c-2.756 0-5-2.242-5-5s2.244-5 5-5 5 2.242 5 5-2.244 5-5 5zm0-8c-1.654 0-3 1.346-3 3s1.346 3 3 3 3-1.346 3-3-1.346-3-3-3zm-22 8c-2.756 0-5-2.242-5-5s2.244-5 5-5 5 2.242 5 5-2.244 5-5 5zm0-8c-1.654 0-3 1.346-3 3s1.346 3 3 3 3-1.346 3-3-1.346-3-3-3zm-4-14H5a1 1 0 010-2h8a1 1 0 010 2zm0 6H3a1 1 0 010-2h10a1 1 0 010 2zm0 6H1a1 1 0 010-2h12a1 1 0 010 2z"/><path d="M28 38h-7a1 1 0 010-2h6.202l4.544-20H9a1 1 0 010-2h24a1 1 0 01.976 1.22l-5 22A1 1 0 0128 38z"/></g><defs><clipPath id="clip0"><path fill="#fff" d="M0 0h48v48H0z"/></clipPath></defs></svg>
